src/icons/svg/maximize.svg

<svg xmlns="http://www.w3.org/2000/svg" viewBox="0 0 32 32">
    <path d="M25.9241 6.61722c-.0484-.11708-.1201-.22682-.2149-.3222-.0014-.00142-.0028-.00283-.0042-.00424C25.5242 6.11106 25.2751 6 25 6h-6c-.5523 0-1 .44772-1 1s.4477 1 1 1h3.5858l-5.2929 5.2929c-.3905.3905-.3905 1.0237 0 1.4142.3905.3905 1.0237.3905 1.4142 0L24 9.41421V13c0 .5523.4477 1 1 1s1-.4477 1-1V7.00069 6.997c-.0004-.1345-.0273-.26275-.0759-.37978zM9.41421 24l5.29289-5.2929c.3905-.3905.3905-1.0237 0-1.4142-.3905-.3905-1.0237-.3905-1.4142 0L8 22.5858V19c0-.5523-.44772-1-1-1s-1 .4477-1 1v5.9998c0 .1356.02699.2651.07588.383.04844.1171.12007.2268.2149.3222.00141.0014.00282.0028.00424.0042.19422.1931.44799.29.70198.2908H13c.5523 0 1-.4477 1-1s-.4477-1-1-1H9.41421z"/>
</svg>

<svg viewBox="0 0 32 32" xmlns="http://www.w3.org/2000/svg">
<path d="M25.9241 6.61722C25.8757 6.50014 25.804 6.3904 25.7092 6.29502C25.7078 6.2936 25.7064 6.29219 25.705 6.29078C25.5242 6.11106 25.2751 6 25 6H19C18.4477 6 18 6.44772 18 7C18 7.55228 18.4477 8 19 8H22.5858L17.2929 13.2929C16.9024 13.6834 16.9024 14.3166 17.2929 14.7071C17.6834 15.0976 18.3166 15.0976 18.7071 14.7071L24 9.41421V13C24 13.5523 24.4477 14 25 14C25.5523 14 26 13.5523 26 13V7.00069C26 6.99969 26 6.998 26 6.997C25.9996 6.8625 25.9727 6.73425 25.9241 6.61722Z">
<path d="M9.41421 24L14.7071 18.7071C15.0976 18.3166 15.0976 17.6834 14.7071 17.2929C14.3166 16.9024 13.6834 16.9024 13.2929 17.2929L8 22.5858V19C8 18.4477 7.55228 18 7 18C6.44772 18 6 18.4477 6 19V24.9998C6 25.1354 6.02699 25.2649 6.07588 25.3828C6.12432 25.4999 6.19595 25.6096 6.29078 25.705C6.29219 25.7064 6.2936 25.7078 6.29502 25.7092C6.48924 25.9023 6.74301 25.9992 6.997 26C6.998 26 6.999 26 7 26H13C13.5523 26 14 25.5523 14 25C14 24.4477 13.5523 24 13 24H9.41421Z">
</svg>
